X: 4305
T: THREE TIMES THREE
%R: hornpipe, reel
B: James Kerr "Merry Melodies" v.4 p.32 #305
Z: 2016 John Chambers <jc:trillian.mit.edu>
M: C
L: 1/8
K: F
|:\
   f2f2 defd   | cdcB  A2F2 |\
[1 f2f2 d2(ef) | gagf  ecde :|\
[2 defd efge   | f2a2  f2z2 |]
|:\
   a2a2 f2(ga) | gagf  e2c2 |\
[1 a2a2 f2(ga) | bag^f gedc :|\
[2 defd efge   | f2a2  f2z2 |]

%%sep 1 1 500
%%sep 1 1 500

